X: 1
T: Dermot Byrne's
M: 4/4
L: 1/8
R: hornpipe
K: Gmaj
Bc|:dgfg (3efg dg|bgd'g bggb|c'bag (3fed ef|gabe' d'2 Bc|
dgfg (3efg dg|bgd'g bggb|c'bag (3fed ef|g2 gf [1g2Bc:|[2gedB||
|:G2 (3BAG EGDE|GBdg edBd|ec (3ccc dBAG|FGAF DEFD|
G2 (3BAG EGDE|GBdg edBd|eGce dBAG|FGAF [1GEDE:|[2G2 Bc|]
